X:1

T:Battle of Aughrim, The [3]

M:C

L:1/8

B:Vallely - Learn to Play the Fiddle with Armagh Pipers Club (197_)

K:D

BAGF EFGA | BAGF E4 | AGFA d2A2 | B2A2 Bcd2 |

BAGF EFGA | BAGF E4 | AGFA d2A2 | F2E2 E4 :|

f2 e2 e2 dc | B2A2d3A | B2A2d2A2 | B2A2 Bc de |

f2e2e2 dc | B2A2d3B | AG FA d2A2 | F2E2 E4 :|

 

BATTLE OF AUGHRIM [4], THE.  Irish (?), March. D Dorian. Standard tuning. AABBCCDDEEFF. The title in Geoghegan’s publication is “A Bagpipe Concerto call’d the Battle of Aughrim, or the Football March.” Geoghegan (Compleat Tutor for the Pastoral or New Bagpipes), c. 1745-46; pg. 27.

